X:3826
T:Love For Ever
O:england
M:C|
L:1/8
N:Dance Music, 1820-1850
A:Yorkshire
B:"The Fiddler of Helperby", Dragonfly Music, ISBN 1-872277-18-7, 1994.
K:D
"D"dAFA dAFA|"D"dAFA d4|\
"A"(eA)"D"(fA) "A"(gA)"D"(fA)|"E"(ef)(ed) "A"{e}c2A2|
"D"dAFA dAFA|"D"dAFA d4|\
"A"(eA)"D"(fA) "A"(gA)"D"(fA)|"A"(ed)(ef) "D"d4:|
|:"D"a2 af "A"g2 ge|"D"f2 fd "A"{g}e2 A2|\
"D"A2 AF "A"G2 GE|"D"F2 FD "A"E4|
"A"g2 (ge) "D"f2 (fd)|"A"e2 (ec) "D"d2(ef)|\
"Em"gbge "D"fafd|"A"egec "D"d4:|
<BODY><XMP>X: 1
T:Jacks Carvatt
M:6/4
L:1/4
S:Henry Atkinson 1694/5 transcribed John Stokoe 1883
A:Hartburn nr. Morpeth
N:Clef missing from original
K:D Major
A|FDFAFA|ECEG2E|FDFAFA|f/2g/2afd2:||:(f/2g/2)afe/2f/2gf|eceg2e|f/2g/2afe
/2f/2ge|cAcd2:||


